X:204
T:Jenny Jones TS.204
M:3/4
L:1/8
Q:3/4=50
S:Thomas Sands’ MS,1810,Lincolnshire
R:waltz
O:England;Lincolnshire
Z:vmp.Ruairidh Greig, 2011
K:C
G2|c2G2ED|C3DE2|F2A2dc|B2G2B2|c2G2E2|F3GA2|G2c2B2|c4:|
d>d|e2c2e2|d2B2G2|A3Bcd|B3AG2|e2c2e2|d2B2G2|c2B2A2|”D.C.”G4|]

